X:5021
T:Ballinary Turn
R:Hornpipe
C:Aidan Crossey
M:4/4
L:1/8
K:D
DFAc dcdB|(3ABA Ac dcdB|(3ABA Ac dcdf|edcB AFGE|
DFAc dcdB|(3ABA Ac dcdB|(3ABA Ac dcdf|ec(3ABc d4||
f2 (3ddd FG (3AAA|c2 (3AAA cd (3eee|f2 (3ddd FGAd|cABc dfeg|
f2 (3ddd FG (3AAA|c2 (3AAA cd (3eee|f2 (3ddd dcdf|ec (3ABc d4||
